app/_includes/svgs/technology-logos/logo_npm.min.svg

<svg xmlns="http://www.w3.org/2000/svg" viewBox="0 0 150 100"><title>logo_npm</title><path d="M0 0v33.33h27.78v5.56h22.22v-5.56h50v-33.33" fill="#cb3837"/><path d="M5.56 5.56v22.22h11.11v-16.67h5.56v16.67h5.56v-22.22h5.56v27.77h11.09v-22.22h5.56v11.11h-5.56v5.56h11.12v-22.22h5.56v22.22h11.1v-16.67h5.56v16.67h5.56v-16.67h5.56v16.67h5.56v-22.22" fill="#fff"/></svg>

<svg xmlns="http://www.w3.org/2000/svg" viewBox="0 0 150 100"><title>logo_npm</title><path d="M0 0v33.33h27.78v5.56H50v-5.56h50V0" fill="#cb3837"/><path d="M5.56 5.56v22.22h11.11V11.11h5.56v16.67h5.56V5.56h5.56v27.77h11.09V11.11H50v11.11h-5.56v5.56h11.12V5.56h5.56v22.22h11.1V11.11h5.56v16.67h5.56V11.11h5.56v16.67h5.56V5.56" fill="#fff"/></svg>
